!!! OTL: Berkowitz217
!!! Chapter: 1
!!! Section: II
!!! Page: 50
!!! Mode: 
!!! Encoder: DJB
**kern
*staff1
*I"Piano
=1-
*clefG2
*k[b-]
*F:
*M4/4
8f/
4a/
8f/
4cc\
4a/
=2
8.g/L
16a/Jk
8g/L
8f/J
8e/L
8d/J
4c/
=3
8g/
4b-\
8g/
4dd\
8cc\L
8b-\J
=4
8.a/L
16g/Jk
8f/L
8g/J
8a/
8r
8r
8cc\
=5
8dd\
4ff\
8dd\
4cc\
4a/
=6
8r
4dd\
8b-\
4a/
4f/
=7
!!linebreak:original
8.g/L
16a/Jk
8g/L
8f/J
8e/L
8d/J
4c/
=8
8r
8cc/L
8b-/
8g/J
4f/
4r
==
*-
